Newaita-dark/.places-blue/32/folder-temp.svg

<svg xmlns="http://www.w3.org/2000/svg" xmlns:xlink="http://www.w3.org/1999/xlink" width="32px" height="32px" viewBox="0 0 32 32" version="1.1">
<defs>
<linearGradient id="linear0" gradientUnits="userSpaceOnUse" x1="254" y1="233.5" x2="254" y2="254.667007" gradientTransform="matrix(0.062505,0,0,0.062505,0,13.439)">
<stop offset="0" style="stop-color:rgb(0%,0%,0%);stop-opacity:0.275;"/>
<stop offset="1" style="stop-color:rgb(0%,0%,0%);stop-opacity:0;"/>
</linearGradient>
<radialGradient id="radial0" gradientUnits="userSpaceOnUse" cx="450.908997" cy="189.578995" fx="450.908997" fy="189.578995" r="21.167" gradientTransform="matrix(0,-0.07813,-0.14064,0,54.115002,63.595001)">
<stop offset="0" style="stop-color:rgb(0%,0%,0%);stop-opacity:0.314;"/>
<stop offset="0.222" style="stop-color:rgb(0%,0%,0%);stop-opacity:0.275;"/>
<stop offset="1" style="stop-color:rgb(0%,0%,0%);stop-opacity:0;"/>
</radialGradient>
<radialGradient id="radial1" gradientUnits="userSpaceOnUse" cx="450.908997" cy="189.578995" fx="450.908997" fy="189.578995" r="21.167" gradientTransform="matrix(0,0.07813,0.14064,0,-22.362,-7.5275)">
<stop offset="0" style="stop-color:rgb(0%,0%,0%);stop-opacity:0.314;"/>
<stop offset="0.222" style="stop-color:rgb(0%,0%,0%);stop-opacity:0.275;"/>
<stop offset="1" style="stop-color:rgb(0%,0%,0%);stop-opacity:0;"/>
</radialGradient>
<radialGradient id="radial2" gradientUnits="userSpaceOnUse" cx="450.908997" cy="189.578995" fx="450.908997" fy="189.578995" r="21.167" gradientTransform="matrix(0,-0.07813,0.14064,0,-22.362,63.595001)">
<stop offset="0" style="stop-color:rgb(0%,0%,0%);stop-opacity:0.314;"/>
<stop offset="0.222" style="stop-color:rgb(0%,0%,0%);stop-opacity:0.275;"/>
<stop offset="1" style="stop-color:rgb(0%,0%,0%);stop-opacity:0;"/>
</radialGradient>
<radialGradient id="radial3" gradientUnits="userSpaceOnUse" cx="450.908997" cy="189.578995" fx="450.908997" fy="189.578995" r="21.167" gradientTransform="matrix(0,0.07813,-0.14064,0,54.115002,-7.5275)">
<stop offset="0" style="stop-color:rgb(0%,0%,0%);stop-opacity:0.314;"/>
<stop offset="0.222" style="stop-color:rgb(0%,0%,0%);stop-opacity:0.275;"/>
<stop offset="1" style="stop-color:rgb(0%,0%,0%);stop-opacity:0;"/>
</radialGradient>
<linearGradient id="linear1" gradientUnits="userSpaceOnUse" x1="254" y1="-147.5" x2="254" y2="-31.083" gradientTransform="matrix(0.062505,0,0,0.062505,0,13.439)">
<stop offset="0" style="stop-color:rgb(64.313728%,64.313728%,64.313728%);stop-opacity:0;"/>
<stop offset="1" style="stop-color:rgb(100%,100%,100%);stop-opacity:0.196;"/>
</linearGradient>
<linearGradient id="linear2" gradientUnits="userSpaceOnUse" x1="254" y1="233.5" x2="254" y2="-105.167" gradientTransform="matrix(0.062505,0,0,0.062505,0,13.439)">
<stop offset="0" style="stop-color:rgb(34.509805%,34.509805%,34.509805%);stop-opacity:0;"/>
<stop offset="1" style="stop-color:rgb(98.039216%,98.039216%,98.039216%);stop-opacity:0.196;"/>
</linearGradient>
<linearGradient id="linear3" gradientUnits="userSpaceOnUse" x1="254" y1="-147.5" x2="254" y2="233.5" gradientTransform="matrix(0.062505,0,0,0.062505,0,13.439)">
<stop offset="0" style="stop-color:rgb(64.313728%,64.313728%,64.313728%);stop-opacity:0;"/>
<stop offset="1" style="stop-color:rgb(100%,100%,100%);stop-opacity:0.196;"/>
</linearGradient>
</defs>
<g id="surface1">
<path style=" stroke:none;fill-rule:nonzero;fill:url(#linear0);" d="M 3.96875 28.03125 L 27.78125 28.03125 L 27.78125 29.359375 L 3.96875 29.359375 Z M 3.96875 28.03125 "/>
<path style=" stroke:none;fill-rule:nonzero;fill:url(#radial0);" d="M 27.78125 28.03125 L 30.429688 28.03125 L 30.429688 26.710938 L 27.78125 26.710938 Z M 27.78125 28.03125 "/>
<path style=" stroke:none;fill-rule:nonzero;fill:url(#radial1);" d="M 3.96875 28.03125 L 1.320312 28.03125 L 1.320312 29.359375 L 3.96875 29.359375 Z M 3.96875 28.03125 "/>
<path style=" stroke:none;fill-rule:nonzero;fill:url(#radial2);" d="M 3.96875 28.03125 L 1.320312 28.03125 L 1.320312 26.710938 L 3.96875 26.710938 Z M 3.96875 28.03125 "/>
<path style=" stroke:none;fill-rule:nonzero;fill:url(#radial3);" d="M 27.78125 28.03125 L 30.429688 28.03125 L 30.429688 29.359375 L 27.78125 29.359375 Z M 27.78125 28.03125 "/>
<path style=" stroke:none;fill-rule:nonzero;fill:rgb(11.764706%,53.333336%,89.803922%);fill-opacity:1;" d="M 7.277344 4.21875 L 28.773438 4.21875 C 29.125 4.21875 29.464844 4.359375 29.710938 4.605469 C 29.960938 4.855469 30.097656 5.191406 30.097656 5.542969 L 30.097656 10.503906 C 30.097656 11.234375 29.503906 11.828125 28.773438 11.824219 L 7.277344 11.824219 C 6.546875 11.828125 5.953125 11.234375 5.953125 10.503906 L 5.953125 5.542969 C 5.953125 4.8125 6.546875 4.21875 7.277344 4.21875 Z M 7.277344 4.21875 "/>
<path style=" stroke:none;fill-rule:nonzero;fill:url(#linear1);" d="M 7.277344 4.21875 L 28.773438 4.21875 C 29.125 4.21875 29.464844 4.359375 29.710938 4.605469 C 29.960938 4.855469 30.097656 5.191406 30.097656 5.542969 L 30.097656 10.503906 C 30.097656 11.234375 29.503906 11.828125 28.773438 11.824219 L 7.277344 11.824219 C 6.546875 11.828125 5.953125 11.234375 5.953125 10.503906 L 5.953125 5.542969 C 5.953125 4.8125 6.546875 4.21875 7.277344 4.21875 Z M 7.277344 4.21875 "/>
<path style=" stroke:none;fill-rule:nonzero;fill:rgb(90.196079%,90.196079%,90.196079%);fill-opacity:0.588;" d="M 7.277344 4.21875 C 6.925781 4.21875 6.589844 4.355469 6.339844 4.605469 C 6.089844 4.855469 5.953125 5.191406 5.953125 5.542969 L 5.953125 5.707031 C 5.953125 5.355469 6.09375 5.019531 6.339844 4.769531 C 6.589844 4.523438 6.925781 4.382812 7.277344 4.386719 L 28.773438 4.386719 C 29.125 4.382812 29.464844 4.523438 29.710938 4.769531 C 29.960938 5.019531 30.097656 5.355469 30.097656 5.707031 L 30.097656 5.542969 C 30.101562 5.191406 29.960938 4.855469 29.710938 4.605469 C 29.464844 4.355469 29.125 4.21875 28.773438 4.21875 Z M 7.277344 4.21875 "/>
<path style=" stroke:none;fill-rule:nonzero;fill:rgb(12.941177%,12.941177%,12.941177%);fill-opacity:1;" d="M 7.277344 4.125 C 6.496094 4.125 5.859375 4.761719 5.859375 5.542969 L 5.859375 10.503906 C 5.859375 10.878906 6.007812 11.242188 6.273438 11.507812 C 6.539062 11.773438 6.902344 11.921875 7.277344 11.921875 L 28.773438 11.921875 C 29.152344 11.921875 29.511719 11.773438 29.777344 11.507812 C 30.042969 11.242188 30.191406 10.878906 30.191406 10.503906 L 30.191406 5.542969 C 30.191406 4.761719 29.558594 4.125 28.773438 4.125 Z M 7.277344 4.3125 L 28.773438 4.3125 C 29.101562 4.3125 29.414062 4.441406 29.644531 4.671875 C 29.878906 4.902344 30.007812 5.214844 30.003906 5.542969 L 30.003906 10.503906 C 30.007812 10.832031 29.875 11.144531 29.644531 11.375 C 29.414062 11.605469 29.101562 11.734375 28.773438 11.734375 L 7.277344 11.734375 C 6.949219 11.734375 6.636719 11.605469 6.40625 11.375 C 6.175781 11.144531 6.046875 10.832031 6.046875 10.503906 L 6.046875 5.542969 C 6.046875 5.214844 6.175781 4.902344 6.40625 4.671875 C 6.636719 4.441406 6.949219 4.3125 7.277344 4.3125 Z M 7.277344 4.3125 "/>
<path style=" stroke:none;fill-rule:nonzero;fill:rgb(25.882354%,64.705884%,96.078432%);fill-opacity:1;" d="M 2.648438 6.863281 C 2.296875 6.863281 1.957031 7.003906 1.710938 7.25 C 1.460938 7.5 1.320312 7.835938 1.324219 8.1875 L 1.324219 26.710938 C 1.320312 27.0625 1.460938 27.398438 1.710938 27.648438 C 1.957031 27.894531 2.296875 28.035156 2.648438 28.03125 L 29.109375 28.03125 C 29.457031 28.035156 29.796875 27.894531 30.042969 27.648438 C 30.292969 27.398438 30.429688 27.0625 30.429688 26.710938 L 30.429688 10.171875 L 12.570312 10.171875 C 12.21875 10.171875 11.878906 10.035156 11.632812 9.785156 C 11.382812 9.539062 11.246094 9.199219 11.246094 8.847656 L 11.246094 6.863281 Z M 2.648438 6.863281 "/>
<path style=" stroke:none;fill-rule:nonzero;fill:url(#linear2);" d="M 2.648438 6.863281 C 2.296875 6.863281 1.957031 7.003906 1.710938 7.25 C 1.460938 7.5 1.320312 7.835938 1.324219 8.1875 L 1.324219 26.710938 C 1.320312 27.0625 1.460938 27.398438 1.710938 27.648438 C 1.957031 27.894531 2.296875 28.035156 2.648438 28.03125 L 29.109375 28.03125 C 29.457031 28.035156 29.796875 27.894531 30.042969 27.648438 C 30.292969 27.398438 30.429688 27.0625 30.429688 26.710938 L 30.429688 10.171875 L 12.570312 10.171875 C 12.21875 10.171875 11.878906 10.035156 11.632812 9.785156 C 11.382812 9.539062 11.246094 9.199219 11.246094 8.847656 L 11.246094 6.863281 Z M 2.648438 6.863281 "/>
<path style=" stroke:none;fill-rule:nonzero;fill:rgb(0%,0%,0%);fill-opacity:0.196;" d="M 2.648438 28.03125 C 2.296875 28.035156 1.957031 27.894531 1.710938 27.648438 C 1.460938 27.398438 1.320312 27.0625 1.324219 26.710938 L 1.324219 26.546875 C 1.320312 26.894531 1.460938 27.234375 1.710938 27.480469 C 1.957031 27.730469 2.296875 27.871094 2.648438 27.867188 L 29.109375 27.867188 C 29.457031 27.871094 29.796875 27.730469 30.042969 27.480469 C 30.292969 27.234375 30.429688 26.894531 30.429688 26.546875 L 30.429688 26.710938 C 30.429688 27.0625 30.292969 27.398438 30.042969 27.648438 C 29.796875 27.894531 29.457031 28.035156 29.109375 28.03125 Z M 2.648438 28.03125 "/>
<path style=" stroke:none;fill-rule:nonzero;fill:rgb(90.196079%,90.196079%,90.196079%);fill-opacity:0.937;" d="M 2.648438 6.863281 C 2.296875 6.863281 1.957031 7.003906 1.710938 7.25 C 1.460938 7.5 1.320312 7.835938 1.324219 8.1875 L 1.324219 8.351562 C 1.320312 8.003906 1.460938 7.664062 1.710938 7.417969 C 1.957031 7.167969 2.296875 7.03125 2.648438 7.03125 L 11.246094 7.03125 L 11.246094 6.863281 Z M 12.488281 10.257812 C 12.136719 10.257812 11.796875 10.117188 11.550781 9.867188 C 11.300781 9.621094 11.164062 9.28125 11.164062 8.929688 L 11.164062 8.765625 C 11.164062 9.117188 11.300781 9.457031 11.550781 9.703125 C 11.796875 9.953125 12.136719 10.089844 12.488281 10.089844 L 30.429688 10.089844 L 30.429688 10.257812 Z M 12.488281 10.257812 "/>
<path style=" stroke:none;fill-rule:nonzero;fill:rgb(12.941177%,12.941177%,12.941177%);fill-opacity:1;" d="M 2.648438 6.773438 C 2.269531 6.769531 1.910156 6.917969 1.644531 7.183594 C 1.378906 7.449219 1.226562 7.8125 1.226562 8.1875 L 1.226562 26.710938 C 1.226562 27.085938 1.378906 27.449219 1.644531 27.714844 C 1.910156 27.980469 2.269531 28.128906 2.648438 28.128906 L 29.109375 28.128906 C 29.484375 28.128906 29.84375 27.976562 30.109375 27.710938 C 30.375 27.445312 30.523438 27.085938 30.523438 26.710938 L 30.523438 9.984375 L 12.570312 9.984375 C 12.242188 9.984375 11.929688 9.855469 11.699219 9.625 C 11.46875 9.394531 11.339844 9.082031 11.339844 8.757812 L 11.339844 6.773438 Z M 2.648438 6.960938 L 11.152344 6.960938 L 11.152344 8.757812 C 11.152344 9.132812 11.300781 9.492188 11.566406 9.757812 C 11.832031 10.023438 12.191406 10.171875 12.570312 10.171875 L 30.335938 10.171875 L 30.335938 26.710938 C 30.335938 27.039062 30.207031 27.351562 29.976562 27.582031 C 29.746094 27.8125 29.433594 27.941406 29.109375 27.941406 L 2.648438 27.941406 C 2.320312 27.941406 2.007812 27.8125 1.777344 27.582031 C 1.542969 27.351562 1.414062 27.039062 1.414062 26.710938 L 1.414062 8.1875 C 1.414062 7.859375 1.542969 7.546875 1.777344 7.316406 C 2.007812 7.085938 2.320312 6.957031 2.648438 6.960938 Z M 2.648438 6.960938 "/>
<path style=" stroke:none;fill-rule:nonzero;fill:rgb(11.764706%,53.333336%,89.803922%);fill-opacity:1;" d="M 11.90625 12.820312 C 11.730469 12.816406 11.5625 12.886719 11.4375 13.011719 C 11.316406 13.136719 11.246094 13.304688 11.246094 13.480469 L 15.214844 18.113281 L 11.246094 22.742188 C 11.246094 23.105469 11.539062 23.402344 11.90625 23.402344 L 19.84375 23.402344 C 20.214844 23.402344 20.746094 23.019531 20.507812 22.742188 L 16.535156 18.113281 L 20.507812 13.480469 C 20.746094 13.199219 20.214844 12.820312 19.84375 12.820312 Z M 11.90625 12.820312 "/>
<path style=" stroke:none;fill-rule:nonzero;fill:url(#linear3);" d="M 11.90625 12.820312 C 11.730469 12.816406 11.5625 12.886719 11.4375 13.011719 C 11.316406 13.136719 11.246094 13.304688 11.246094 13.480469 L 15.214844 18.113281 L 11.246094 22.742188 C 11.246094 23.105469 11.539062 23.402344 11.90625 23.402344 L 19.84375 23.402344 C 20.214844 23.402344 20.746094 23.019531 20.507812 22.742188 L 16.535156 18.113281 L 20.507812 13.480469 C 20.746094 13.199219 20.214844 12.820312 19.84375 12.820312 Z M 11.90625 12.820312 "/>
<path style=" stroke:none;fill-rule:nonzero;fill:rgb(12.941177%,12.941177%,12.941177%);fill-opacity:1;" d="M 11.90625 12.726562 C 11.488281 12.726562 11.152344 13.066406 11.152344 13.480469 L 11.152344 13.515625 L 15.09375 18.113281 L 11.152344 22.707031 L 11.152344 22.742188 C 11.152344 23.160156 11.492188 23.496094 11.90625 23.496094 L 19.84375 23.496094 C 20.0625 23.496094 20.296875 23.394531 20.464844 23.246094 C 20.550781 23.175781 20.617188 23.089844 20.648438 22.988281 C 20.675781 22.878906 20.652344 22.765625 20.578125 22.679688 L 16.660156 18.113281 L 20.578125 13.539062 C 20.652344 13.457031 20.675781 13.339844 20.648438 13.234375 C 20.617188 13.132812 20.550781 13.050781 20.464844 12.972656 C 20.296875 12.828125 20.0625 12.722656 19.84375 12.722656 Z M 11.90625 12.910156 L 19.84375 12.910156 C 19.996094 12.910156 20.210938 13.003906 20.34375 13.113281 C 20.398438 13.160156 20.441406 13.21875 20.46875 13.285156 C 20.480469 13.335938 20.476562 13.371094 20.433594 13.421875 L 16.414062 18.113281 L 20.433594 22.800781 C 20.476562 22.851562 20.480469 22.886719 20.46875 22.933594 C 20.441406 23.003906 20.398438 23.0625 20.34375 23.105469 C 20.210938 23.21875 19.996094 23.308594 19.84375 23.308594 L 11.90625 23.308594 C 11.605469 23.308594 11.355469 23.070312 11.34375 22.769531 L 15.339844 18.113281 L 11.34375 13.453125 C 11.355469 13.152344 11.605469 12.910156 11.90625 12.910156 Z M 11.90625 12.910156 "/>
</g>
</svg>

<svg xmlns="http://www.w3.org/2000/svg" width="32pt" height="32pt" viewBox="0 0 32 32"><defs><linearGradient id="a" gradientUnits="userSpaceOnUse" x1="254" y1="233.5" x2="254" y2="254.667" gradientTransform="matrix(.0625 0 0 .0625 0 13.439)"><stop offset="0" stop-opacity=".275"/><stop offset="1" stop-opacity="0"/></linearGradient><radialGradient id="b" gradientUnits="userSpaceOnUse" cx="450.909" cy="189.579" fx="450.909" fy="189.579" r="21.167" gradientTransform="matrix(0 -.07813 -.14064 0 54.115 63.595)"><stop offset="0" stop-opacity=".314"/><stop offset=".222" stop-opacity=".275"/><stop offset="1" stop-opacity="0"/></radialGradient><radialGradient id="c" gradientUnits="userSpaceOnUse" cx="450.909" cy="189.579" fx="450.909" fy="189.579" r="21.167" gradientTransform="matrix(0 .07813 .14064 0 -22.362 -7.527)"><stop offset="0" stop-opacity=".314"/><stop offset=".222" stop-opacity=".275"/><stop offset="1" stop-opacity="0"/></radialGradient><radialGradient id="d" gradientUnits="userSpaceOnUse" cx="450.909" cy="189.579" fx="450.909" fy="189.579" r="21.167" gradientTransform="matrix(0 -.07813 .14064 0 -22.362 63.595)"><stop offset="0" stop-opacity=".314"/><stop offset=".222" stop-opacity=".275"/><stop offset="1" stop-opacity="0"/></radialGradient><radialGradient id="e" gradientUnits="userSpaceOnUse" cx="450.909" cy="189.579" fx="450.909" fy="189.579" r="21.167" gradientTransform="matrix(0 .07813 -.14064 0 54.115 -7.527)"><stop offset="0" stop-opacity=".314"/><stop offset=".222" stop-opacity=".275"/><stop offset="1" stop-opacity="0"/></radialGradient><linearGradient id="f" gradientUnits="userSpaceOnUse" x1="254" y1="-147.5" x2="254" y2="-31.083" gradientTransform="matrix(.0625 0 0 .0625 0 13.439)"><stop offset="0" stop-color="#a4a4a4" stop-opacity="0"/><stop offset="1" stop-color="#fff" stop-opacity=".196"/></linearGradient><linearGradient id="g" gradientUnits="userSpaceOnUse" x1="254" y1="233.5" x2="254" y2="-105.167" gradientTransform="matrix(.0625 0 0 .0625 0 13.439)"><stop offset="0" stop-color="#585858" stop-opacity="0"/><stop offset="1" stop-color="#fafafa" stop-opacity=".196"/></linearGradient><linearGradient id="h" gradientUnits="userSpaceOnUse" x1="254" y1="-147.5" x2="254" y2="233.5" gradientTransform="matrix(.0625 0 0 .0625 0 13.439)"><stop offset="0" stop-color="#a4a4a4" stop-opacity="0"/><stop offset="1" stop-color="#fff" stop-opacity=".196"/></linearGradient></defs><path d="M3.969 28.035h23.816v1.32H3.97zm0 0" fill="url(#a)"/><path d="M27.785 28.035h2.645v-1.324h-2.645zm0 0" fill="url(#b)"/><path d="M3.969 28.035H1.324v1.32H3.97zm0 0" fill="url(#c)"/><path d="M3.969 28.035H1.324v-1.324H3.97zm0 0" fill="url(#d)"/><path d="M27.785 28.035h2.645v1.32h-2.645zm0 0" fill="url(#e)"/><path d="M7.277 4.219h21.5c.73 0 1.32.593 1.32 1.324v4.96c0 .731-.59 1.325-1.32 1.325h-21.5c-.73 0-1.324-.594-1.324-1.324V5.543c0-.73.594-1.324 1.324-1.324zm0 0" fill="#1e88e5"/><path d="M7.277 4.219h21.5c.73 0 1.32.593 1.32 1.324v4.96c0 .731-.59 1.325-1.32 1.325h-21.5c-.73 0-1.324-.594-1.324-1.324V5.543c0-.73.594-1.324 1.324-1.324zm0 0" fill="url(#f)"/><path d="M7.277 4.219a1.32 1.32 0 0 0-1.324 1.324v.164c0-.734.59-1.324 1.324-1.324h21.5c.73 0 1.32.59 1.32 1.324v-.164a1.32 1.32 0 0 0-1.32-1.324zm0 0" fill="#e6e6e6" fill-opacity=".588"/><path d="M7.277 4.125c-.785 0-1.418.633-1.418 1.418v4.96c0 .782.633 1.419 1.418 1.419h21.5c.782 0 1.414-.637 1.414-1.418V5.543c0-.785-.632-1.418-1.414-1.418zm0 .188h21.5c.68 0 1.227.546 1.227 1.23v4.96c0 .684-.547 1.231-1.227 1.231h-21.5c-.683 0-1.23-.546-1.23-1.23V5.543c0-.684.547-1.23 1.23-1.23zm0 0" fill="#212121"/><path d="M2.645 6.863c-.73 0-1.32.594-1.32 1.324v18.524c0 .734.59 1.324 1.32 1.324h26.46a1.32 1.32 0 0 0 1.325-1.324V10.17H12.57a1.32 1.32 0 0 1-1.324-1.32V6.864zm0 0" fill="#42a5f5"/><path d="M2.645 6.863c-.73 0-1.32.594-1.32 1.324v18.524c0 .734.59 1.324 1.32 1.324h26.46a1.32 1.32 0 0 0 1.325-1.324V10.17H12.57a1.32 1.32 0 0 1-1.324-1.32V6.864zm0 0" fill="url(#g)"/><path d="M2.645 28.035c-.73 0-1.32-.59-1.32-1.324v-.164c0 .73.59 1.32 1.32 1.32h26.46a1.32 1.32 0 0 0 1.325-1.32v.164a1.32 1.32 0 0 1-1.325 1.324zm0 0" fill-opacity=".196"/><path d="M2.645 6.863c-.73 0-1.32.594-1.32 1.324v.168c0-.734.59-1.324 1.32-1.324h8.601v-.168zm0 0M12.484 10.254c-.73 0-1.32-.59-1.32-1.32v-.168c0 .734.59 1.324 1.32 1.324H30.43v.164zm0 0" fill="#e6e6e6" fill-opacity=".937"/><path d="M2.645 6.77c-.782 0-1.415.636-1.415 1.418V26.71c0 .785.633 1.418 1.415 1.418h26.46c.786 0 1.418-.633 1.418-1.418V9.984H12.57c-.683 0-1.23-.546-1.23-1.226V6.77zm0 .19h8.507v1.798c0 .781.633 1.414 1.418 1.414h17.766V26.71c0 .684-.547 1.23-1.23 1.23H2.644c-.68 0-1.227-.546-1.227-1.23V8.188c0-.684.547-1.227 1.227-1.227zm0 0" fill="#212121"/><path d="M11.906 12.82a.657.657 0 0 0-.66.66l3.969 4.63-3.969 4.632c0 .367.293.66.66.66h7.938c.367 0 .902-.382.664-.66l-3.969-4.633 3.969-4.629c.238-.277-.297-.66-.664-.66zm0 0" fill="#1e88e5"/><path d="M11.906 12.82a.657.657 0 0 0-.66.66l3.969 4.63-3.969 4.632c0 .367.293.66.66.66h7.938c.367 0 .902-.382.664-.66l-3.969-4.633 3.969-4.629c.238-.277-.297-.66-.664-.66zm0 0" fill="url(#h)"/><path d="M11.906 12.727a.754.754 0 0 0-.754.753v.036l3.938 4.593-3.938 4.598v.035c0 .418.34.754.754.754h7.938a.983.983 0 0 0 .62-.25.536.536 0 0 0 .18-.258.326.326 0 0 0-.066-.308l-3.918-4.57 3.918-4.567a.328.328 0 0 0 .067-.309.536.536 0 0 0-.18-.257.983.983 0 0 0-.621-.25zm0 .187h7.938c.152 0 .367.086.496.203a.354.354 0 0 1 .125.168c.015.05.012.086-.027.133l-4.024 4.691 4.023 4.692c.04.05.043.086.028.137a.395.395 0 0 1-.125.167.838.838 0 0 1-.496.204h-7.938a.563.563 0 0 1-.562-.54l3.996-4.66-3.996-4.656a.56.56 0 0 1 .562-.539zm0 0" fill="#212121"/></svg>
